dist/assets/images/product-icons/gauge.svg

<svg width="76" height="106" viewBox="0 0 76 106" fill="none" xmlns="http://www.w3.org/2000/svg">
<path opacity="0.6" fill-rule="evenodd" clip-rule="evenodd" d="M36.1108 0.172012C34.6038 0.631507 33.0548 2.02511 32.4572 3.45888C32.287 3.86723 32.087 5.17593 32.0127 6.36702L31.8774 8.53279L30.0666 8.90739C25.6225 9.82679 19.8534 12.3593 16.0809 15.0471C13.7072 16.7381 9.87907 20.3956 8.11168 22.6612C-1.35597 34.7973 -2.65445 51.5458 4.84108 64.8482C10.1895 74.3402 19.2197 81.0415 29.9216 83.4609L31.9806 83.9264V86.3477V88.769L25.6287 88.8602C19.4324 88.949 19.2358 88.9647 17.608 89.501C14.7006 90.4592 12.1129 92.62 10.7031 95.2674C10.0937 96.4119 8.01872 103.553 8.01872 104.506C8.01872 104.769 8.24698 105.212 8.52585 105.492L9.03276 106H37.9449C53.8465 106 67.0074 105.942 67.1912 105.871C67.3753 105.801 67.6653 105.472 67.8359 105.141C68.1278 104.576 68.0842 104.304 67.1061 100.59C66.481 98.2153 65.8008 96.1315 65.4009 95.3664C64.4961 93.6351 61.9936 91.1272 60.3336 90.2883C57.9074 89.0625 57.2658 88.9714 50.3136 88.8657L43.9616 88.769V86.3345V83.8999L45.7691 83.5464C49.7608 82.7658 54.9376 80.6572 58.3662 78.4156C60.8395 76.7984 62.2784 75.6479 64.3823 73.6057C70.7438 67.4306 74.4597 60.0983 75.7752 51.1256C76.1119 48.8278 76.0621 43.3105 75.6814 40.772C75.2891 38.1558 74.3377 34.4971 73.4992 32.3812C71.4498 27.2095 67.2623 20.893 65.883 20.893C65.6244 20.893 65.1317 21.1748 64.788 21.5194C63.9741 22.3352 64.0795 22.7436 65.6325 24.7915C69.0332 29.2767 71.1894 34.0541 72.3067 39.5803C72.713 41.5897 72.7766 42.5242 72.7692 46.363C72.7616 50.1882 72.6946 51.1211 72.2926 52.9893C70.1239 63.0707 64.3951 71.1407 55.6986 76.3652C52.498 78.288 48.8947 79.6684 44.741 80.5631C41.8236 81.1916 35.0007 81.2446 31.8774 80.6632C25.179 79.416 18.9177 76.2005 14.0117 71.4878C8.38269 66.0809 4.95304 59.6351 3.56284 51.8504C3.02555 48.8412 3.06108 43.3318 3.63844 40.1462C4.52276 35.2665 6.79398 29.8429 9.6188 25.8652C11.4147 23.336 15.2304 19.5155 17.7299 17.7434C25.9011 11.9499 36.0246 9.89264 45.6241 12.0744C50.9833 13.2924 54.5472 15.0136 60.2594 19.1432C61.1497 19.7868 61.8163 19.7864 62.4588 19.1422C63.5779 18.0203 62.965 17.0965 59.5503 14.7593C55.0675 11.6911 50.7509 9.91583 44.5297 8.58249L43.9616 8.46073V6.53433C43.9616 5.27947 43.8416 4.25487 43.6172 3.59472C43.1611 2.25289 41.6929 0.781014 40.3543 0.323797C39.3138 -0.0315405 37.0447 -0.112713 36.1108 0.172012ZM40.1027 3.88338C40.7214 4.50357 40.7641 4.64458 40.8327 6.29827L40.9054 8.05445H38.0957H35.2857V6.34051C35.2857 5.09186 35.377 4.4957 35.622 4.14492C36.1283 3.42037 37.0953 3.06772 38.3469 3.15138C39.2535 3.21184 39.5602 3.33982 40.1027 3.88338ZM34.018 18.6177C21.6462 20.5718 12.2682 30.1353 10.4827 42.6183C10.1482 44.9571 10.3544 49.8515 10.8849 52.161C13.4242 63.2179 21.9224 71.4163 33.1242 73.6161C35.5578 74.094 40.2706 74.1041 42.8375 73.6368C54.2324 71.5625 63.1024 62.7244 65.374 51.1816C65.9037 48.4911 65.8537 43.6014 65.2687 40.8366C64.2127 35.8459 62.3098 31.9273 59.0683 28.0687C55.2801 23.5593 49.7682 20.2834 43.6517 18.9059C41.9566 18.5243 35.7794 18.3394 34.018 18.6177ZM43.1353 22.0271C47.263 23.0283 50.5363 24.6288 53.8261 27.2543L54.2919 27.626L51.1345 30.7861L47.9771 33.9462L47.2605 33.4083C45.6573 32.2046 43.2252 31.1613 41.0696 30.7528L39.7269 30.4985L39.6237 27.2696C39.5342 24.4745 39.4675 23.9825 39.1269 23.6058C38.6131 23.0378 37.4946 23.0273 36.9383 23.5849C36.5607 23.9635 36.5251 24.2751 36.5251 27.2151C36.5251 29.6122 36.4594 30.4494 36.2669 30.5022C36.125 30.5411 35.4109 30.6851 34.6803 30.8221C32.8852 31.1588 31.0697 31.914 29.3785 33.0275L27.9722 33.9533L24.9156 30.8942C23.2343 29.2117 21.8588 27.7695 21.8588 27.6893C21.8588 27.4649 24.0709 25.8205 25.6501 24.8711C28.2066 23.334 31.3027 22.2431 34.5627 21.731C36.3161 21.4556 41.5202 21.6353 43.1353 22.0271ZM22.7466 33.0685L25.7983 36.1325L24.8747 37.5423C23.7448 39.2668 23.0284 41.0172 22.5981 43.1059C22.0364 45.8322 22.1815 46.7247 23.2589 47.1722C24.0057 47.4824 24.8836 47.1819 25.1579 46.5224C25.2655 46.264 25.4523 45.3684 25.5733 44.5322C26.0026 41.564 26.9088 39.6938 28.9823 37.4965C30.8656 35.5003 33.2128 34.2094 35.6766 33.8145L36.5251 33.6785V36.1396V38.6004L35.6472 38.8698C32.3903 39.8694 30.125 43.2616 30.3752 46.7653C30.5913 49.7927 32.6642 52.5041 35.4933 53.4604L36.4219 53.7741L36.4747 55.0901C36.5518 57.0121 36.666 57.3302 37.388 57.6344C38.7722 58.2179 39.4797 57.4915 39.6237 55.3381L39.7269 53.7942L40.8998 53.3173C43.9083 52.0945 45.6619 49.4558 45.6596 46.1559C45.6581 44.0916 45.08 42.5752 43.7294 41.094C42.7761 40.0483 40.6206 38.7013 39.9005 38.7013C39.6844 38.7013 39.6237 38.1554 39.6237 36.2164C39.6237 33.3809 39.5342 33.4838 41.4968 34.062C45.7517 35.3156 49.1805 38.8696 50.2601 43.1451C50.6575 44.719 50.6548 47.5369 50.2543 49.2407C49.8787 50.8376 48.736 53.0817 47.6862 54.2835C46.799 55.2992 46.4404 55.9175 46.4404 56.4321C46.4404 56.6321 48.2142 58.5826 50.3821 60.7663L54.3241 64.7368L53.429 65.457C49.0502 68.9809 43.8224 70.8218 38.186 70.8243C34.2442 70.8262 30.9749 70.1385 27.6873 68.6159C26.2341 67.9429 23.4027 66.1511 22.2887 65.1998L21.7892 64.773L25.6454 60.8877C30.1504 56.3489 30.1387 56.3743 28.5731 54.5802C28.0622 53.9949 27.3196 52.8967 26.923 52.1399C26.4235 51.1871 26.0218 50.6891 25.6175 50.5212C24.5768 50.0892 23.5113 50.8101 23.5113 51.9463C23.5113 52.4617 24.4987 54.4564 25.2546 55.468L25.7912 56.1863L22.6427 59.3475L19.4942 62.5089L19.0292 61.9423C15.2461 57.3312 13.2098 51.2619 13.4548 45.3276C13.6155 41.4324 14.2761 38.7924 15.9722 35.2668C16.8237 33.4971 19.1893 30.0042 19.5366 30.0042C19.6237 30.0042 21.0683 31.3831 22.7466 33.0685ZM57.4602 31.0247C64.4302 40.1866 64.3327 52.7766 57.2233 61.6541L56.5028 62.5536L53.434 59.4823C51.7461 57.7932 50.3652 56.3335 50.3652 56.2389C50.3652 56.1441 50.6317 55.6769 50.9574 55.2008C52.8604 52.4199 53.6939 49.6672 53.6963 46.1559C53.6988 42.7475 52.9196 40.1562 51.0293 37.2861L50.3018 36.1814L53.3778 33.0929C55.0696 31.3941 56.5057 30.0042 56.5689 30.0042C56.6321 30.0042 57.0332 30.4635 57.4602 31.0247ZM40.3611 42.3226C42.9114 43.8209 43.2849 47.5418 41.0845 49.5345C40.0723 50.4512 39.0515 50.7796 37.5528 50.6711C34.7792 50.4698 32.8838 47.7002 33.6476 44.9648C33.9742 43.7959 35.4283 42.2271 36.5251 41.8602C37.6231 41.493 39.2913 41.6941 40.3611 42.3226ZM40.8631 86.5351V88.8129H38.0744H35.2857V86.5351V84.2573H38.0744H40.8631V86.5351ZM58.478 92.8941C60.1258 93.6765 61.8636 95.3198 62.611 96.8027C63.0134 97.6005 64.4118 102.243 64.4118 102.78C64.4118 102.843 52.56 102.894 38.0744 102.894C14.9326 102.894 11.7369 102.857 11.7369 102.587C11.7369 101.977 12.9916 97.6705 13.4071 96.8544C14.3471 95.0071 16.5244 93.1652 18.5349 92.5166C19.6163 92.1677 20.8813 92.1466 38.3843 92.1868L57.0787 92.2296L58.478 92.8941Z" fill="#231F20"/>
</svg>

<svg width="76" height="106" fill="none" xmlns="http://www.w3.org/2000/svg"><path opacity=".6" fill-rule="evenodd" clip-rule="evenodd" d="M36.11.172c-1.506.46-3.055 1.853-3.653 3.287-.17.408-.37 1.717-.444 2.908l-.136 2.166-1.81.374c-4.445.92-10.214 3.452-13.986 6.14-2.374 1.691-6.202 5.349-7.97 7.614-9.467 12.136-10.765 28.885-3.27 42.187 5.349 9.492 14.379 16.194 25.08 18.613l2.06.465v4.843l-6.352.091c-6.197.089-6.393.105-8.021.641-2.907.958-5.495 3.119-6.905 5.766-.61 1.145-2.684 8.286-2.684 9.239 0 .263.228.706.507.986l.507.508h28.912c15.901 0 29.062-.058 29.246-.129.184-.07.474-.399.645-.73.292-.565.248-.837-.73-4.551-.625-2.375-1.305-4.459-1.705-5.224-.905-1.73-3.407-4.239-5.067-5.078-2.427-1.225-3.068-1.317-10.02-1.422l-6.352-.097V83.9l1.807-.354c3.992-.78 9.169-2.889 12.597-5.13 2.474-1.618 3.912-2.768 6.016-4.81 6.362-6.175 10.078-13.508 11.393-22.48.337-2.298.287-7.816-.094-10.354-.392-2.616-1.343-6.275-2.182-8.39-2.05-5.172-6.237-11.489-7.616-11.489-.259 0-.751.282-1.095.626-.814.816-.709 1.225.844 3.273 3.401 4.485 5.557 9.262 6.675 14.788.406 2.01.47 2.944.462 6.783-.007 3.825-.074 4.758-.476 6.626-2.17 10.082-7.898 18.152-16.594 23.376-3.201 1.923-6.804 3.303-10.958 4.198-2.917.629-9.74.682-12.864.1a35.194 35.194 0 01-17.865-9.175C8.382 66.08 4.953 59.635 3.562 51.85c-.536-3.009-.5-8.518.076-11.704.885-4.88 3.156-10.303 5.98-14.28 1.797-2.53 5.612-6.35 8.112-8.123 8.171-5.793 18.295-7.85 27.894-5.669 5.36 1.218 8.923 2.94 14.635 7.07.89.643 1.557.642 2.2-.002 1.119-1.122.506-2.046-2.909-4.383-4.482-3.068-8.8-4.843-15.02-6.177l-.568-.121V6.534c0-1.255-.12-2.28-.345-2.94-.456-1.341-1.924-2.813-3.263-3.27-1.04-.356-3.31-.437-4.243-.152zm3.993 3.711c.618.62.661.762.73 2.415l.072 1.756h-5.62V6.341c0-1.25.092-1.845.337-2.196.506-.725 1.473-1.077 2.725-.994.907.06 1.213.189 1.756.732zm-6.085 14.735c-12.372 1.954-21.75 11.517-23.535 24-.335 2.34-.129 7.233.402 9.543 2.54 11.057 11.037 19.255 22.24 21.455 2.433.478 7.146.488 9.712.02 11.395-2.073 20.265-10.912 22.537-22.454.53-2.69.48-7.58-.105-10.345-1.056-4.991-2.96-8.91-6.2-12.768-3.789-4.51-9.3-7.786-15.417-9.163-1.695-.382-7.873-.567-9.634-.288zm9.117 3.41c4.128 1 7.401 2.6 10.691 5.226l.466.372-3.157 3.16-3.158 3.16-.716-.538c-1.604-1.203-4.036-2.247-6.191-2.655l-1.343-.255-.103-3.228c-.09-2.796-.157-3.287-.497-3.664-.514-.568-1.632-.579-2.189-.021-.377.378-.413.69-.413 3.63 0 2.397-.066 3.234-.258 3.287-.142.04-.856.183-1.587.32-1.795.337-3.61 1.092-5.302 2.206l-1.406.925-3.056-3.059c-1.682-1.682-3.057-3.124-3.057-3.205 0-.224 2.212-1.869 3.791-2.818 2.557-1.537 5.653-2.628 8.913-3.14 1.753-.275 6.957-.096 8.572.296zm-20.388 11.04l3.051 3.065-.923 1.41c-1.13 1.724-1.847 3.474-2.277 5.563-.562 2.726-.416 3.619.66 4.066.748.31 1.626.01 1.9-.65.107-.258.294-1.154.415-1.99.43-2.968 1.336-4.838 3.41-7.035 1.883-1.997 4.23-3.288 6.694-3.682l.848-.136V38.6l-.878.27c-3.257 1-5.522 4.392-5.272 7.895.216 3.028 2.29 5.74 5.118 6.695l.929.314.053 1.316c.077 1.922.191 2.24.913 2.544 1.384.584 2.092-.142 2.236-2.296l.103-1.544 1.173-.477c3.008-1.223 4.762-3.861 4.76-7.161-.002-2.064-.58-3.58-1.93-5.062-.954-1.046-3.11-2.393-3.83-2.393-.216 0-.276-.546-.276-2.485 0-2.835-.09-2.732 1.873-2.154 4.255 1.254 7.684 4.808 8.763 9.083.398 1.574.395 4.392-.006 6.096-.375 1.597-1.518 3.84-2.568 5.042-.887 1.016-1.246 1.634-1.246 2.15 0 .2 1.774 2.15 3.942 4.333l3.942 3.97-.895.721c-4.379 3.524-9.607 5.365-15.243 5.367-3.942.002-7.211-.686-10.499-2.208-1.453-.673-4.284-2.465-5.398-3.416l-.5-.427 3.856-3.885c4.505-4.54 4.494-4.514 2.928-6.308-.51-.585-1.253-1.683-1.65-2.44-.5-.953-.901-1.45-1.305-1.619-1.041-.432-2.107.29-2.107 1.425 0 .516.988 2.51 1.744 3.522l.536.718-3.148 3.161-3.149 3.162-.465-.567c-3.783-4.61-5.82-10.68-5.574-16.614.16-3.896.821-6.536 2.517-10.061.852-1.77 3.217-5.263 3.565-5.263.087 0 1.531 1.38 3.21 3.064zm34.713-2.043c6.97 9.162 6.873 21.752-.237 30.63l-.72.899-3.069-3.072c-1.688-1.689-3.069-3.148-3.069-3.243 0-.095.267-.562.592-1.038 1.903-2.781 2.737-5.534 2.74-9.045.002-3.408-.777-6-2.668-8.87l-.727-1.105 3.076-3.088c1.692-1.699 3.128-3.089 3.19-3.089.064 0 .465.46.892 1.02zM40.361 42.323c2.55 1.498 2.924 5.219.724 7.212-1.013.916-2.034 1.245-3.532 1.136-2.774-.201-4.67-2.97-3.905-5.706.326-1.17 1.78-2.738 2.877-3.105 1.098-.367 2.766-.166 3.836.463zm.502 44.212v2.278h-5.577v-4.556h5.578v2.278zm17.615 6.36c1.648.782 3.386 2.425 4.133 3.908.402.797 1.8 5.44 1.8 5.977 0 .063-11.851.114-26.337.114-23.141 0-26.337-.037-26.337-.307 0-.61 1.255-4.916 1.67-5.733.94-1.847 3.117-3.689 5.128-4.337 1.081-.35 2.346-.37 19.85-.33l18.694.043 1.399.664z" fill="#231F20"/></svg>
